svgs/duotone/list-music.svg

<svg xmlns="http://www.w3.org/2000/svg" viewBox="0 0 512 512"><!-- Font Awesome Pro 6.0.0-alpha2 by @fontawesome - https://fontawesome.com License - https://fontawesome.com/license (Commercial License) --><defs><style>.fa-secondary{opacity:.4}</style></defs><path d="M31.976 255.974H256.026C273.685 255.974 288 241.659 288 224V223.943C288 206.283 273.684 191.967 256.024 191.967H31.974C14.315 191.967 0 206.283 0 223.941V223.998C0 241.658 14.316 255.974 31.976 255.974ZM31.976 127.961H256.026C273.685 127.961 288 113.646 288 95.987V95.93C288 78.27 273.684 63.954 256.024 63.954H31.974C14.315 63.954 0 78.27 0 95.928V95.985C0 113.645 14.316 127.961 31.976 127.961ZM128.024 319.98H31.974C14.315 319.98 0 334.296 0 351.954V352.011C0 369.671 14.316 383.987 31.976 383.987H128.026C145.685 383.987 160 369.672 160 352.013V351.956C160 334.296 145.684 319.98 128.024 319.98Z" class="fa-secondary"/><path d="M471 1.323L374.375 29.826C361.125 33.951 352 46.328 352 60.329V359.985C336.5 354.734 320.375 351.984 304 351.984C242.125 351.984 192 387.862 192 431.992S242.125 512 304 512S416 476.121 416 431.992V148.088L489 126.711C502.625 122.71 512 110.209 512 95.958V31.951C512 21.825 507.25 12.324 499.125 6.324C491.125 0.323 480.625 -1.552 471 1.323Z" class="fa-primary"/></svg>

<svg xmlns="http://www.w3.org/2000/svg" viewBox="0 0 512 512"><!--! Font Awesome Pro 6.3.0 by @fontawesome - https://fontawesome.com License - https://fontawesome.com/license (Commercial License) Copyright 2023 Fonticons, Inc. --><defs><style>.fa-secondary{opacity:.4}</style></defs><path class="fa-primary" d="M471 1.323l-96.63 28.5C361.1 33.95 352 46.33 352 60.33v299.7c-15.5-5.251-31.62-8.001-48-8.001c-61.88 0-112 35.88-112 80.01S242.1 512 304 512s112-35.88 112-80.01V148.1l73-21.38C502.6 122.7 512 110.2 512 95.96V31.96c0-10.13-4.75-19.64-12.88-25.64C491.1 .323 480.6-1.552 471 1.323z"/><path class="fa-secondary" d="M31.97 255.1h224.1C273.7 255.1 288 241.7 288 224c0-17.66-14.32-32.02-31.97-32.02H31.97C14.32 191.1 0 206.3 0 223.1C0 241.6 14.32 255.1 31.97 255.1zM31.97 127.1h224.1C273.7 127.1 288 113.6 288 95.99c0-17.66-14.31-32.01-31.97-32.01H31.97C14.32 63.98 0 78.31 0 95.97C0 113.6 14.32 127.1 31.97 127.1zM128 319.1H31.97C14.32 319.1 0 334.3 0 351.1c0 17.66 14.32 32.02 31.97 32.02H128C145.7 383.1 160 369.7 160 352C160 334.4 145.7 319.1 128 319.1z"/></svg>
